X: 13204
T: Fish In A Pothole
R: polka
M: 2/4
K: Bminor
B/c/d|:ff A/B/c|d2 B/c/d|ff Bc|de/d/ c2|
[fB][fB] [eA][eA]|[dG][dG] [c2F2]|[eA][g/c/][f/B]] [eA][dG]|1 [B2F2] B/c/d:|2 [B2F2] c/d/e/f/||
ge fd|ec dB|bg af|ge [a2e2]|
fg/f/ ef/e/|de/d/ c2|eg/f/ ed|B2 c/d/e/f/|
ge fd|ec dB|bg af|ge [b2f2]|
[f2B2] [e2A2]|[d2G2] [c2F2]|eg/f/ ed|B2 B/c/d||

